X:1
T:Due capre quel ladro traditor
T:Ruggiero Giovanelli c 1560 - 1625
T:Due capre quel ladro traditor
T:(C) Wim Looyestijn - 2018. May be freely copied for non-commercial use.
T:(C) Wim Looyestijn - 2018. May be freely copied for non-commercial use.
T:(C) Wim Looyestijn - 2018. May be freely copied for non-commercial use.
T:(C) Wim Looyestijn - 2018. May be freely copied for non-commercial use.
T:(C) Wim Looyestijn - 2018. May be freely copied for non-commercial use.
C:Ruggiero Giovanelli
C:c 1560 - 1625
Z:(C) Wim Looyestijn - 2018. May be freely copied for non-commercial use.
%%score [ 1 2 3 4 ]
L:1/8
Q:1/4=80
M:4/4
K:C
V:1 treble nm="Canto" snm="C"
V:2 alto2 nm="Alto" snm="A"
V:3 alto nm="Tenor" snm="T"
V:4 tenor nm="Basso" snm="B"
V:1
 x8 |[M:2/2] z8 |[K:Bb] x8 |[M:4/4] z8 | f4 e4 | d4 c4 | B4 A2 A2 | G3 G F2 F2 | f3 e d3 c | %9
w: ||||e due|ca- pret-|ti per ma-|li- ti- a, quel|la- dro tra- di-|
 B2 B2 f3 e | d2 d2 c4 | z2 F2 f3 e | d3 c B2 F2 | f3 e d3 c | BAGF =E2 E2 | F4 z2 c2 | d6 d2 | %17
w: tor, quel la- dro|tra- di- tor,|quel la- dro|tra- di- tor dal|gre- ge tol- *|* * * * * se-|mi, si|si- gno-|
 d2 c2 c4 | B4 B2 A2 | G6 G2 | G4 G4 | G2 A2 B4 | z2 d2 G2 c2 | F4 z2 A2 | B2 B2 B2 G2 | G6 G2 | %26
w: reg- gia al mon-|do l'a- ni-|ri- ti-|a Io|gliel di- rei,|Io gliel di-|rei ma|chi m'el dis- se|vol- se-|
 G4 B4- | B4 A4- | A2 A4 B2- | B2 c2 d4 | d4 z2 B2 | B2 A2 G3 G | G2 G2 ^F2 F2 | z8 | %34
w: mi le-|* gar|* per giu-|* ra- men-|to, ond'|es- ser mu- to-|lo con- viem- mi.||
[M:3/2] G4 G4 A4 | B12 | d4 d4 d4 | d8 c4 | B6 B2 B4 | B4 A8 | A8 B4- | B4 c8 |[M:4/4] d4 d4 | %43
w: In gliel di-|rei|ma chi m'el|dis- se|vil- se- mi|le- gar|per giu-|* ra-|men- to|
 z2 B2 B2 A2 | G3 G G2 F2 | G2 G2 z4 | z4 B4 | B4 A4 | G2 d2 f3 e | d3 c B2 A2- | A2 G4 F2 | %51
w: ond' es- ser|mu- to- lo con-|viem- mi.|Et|pen- sa|tu, et pen- sa|tu se ques- to|* dol- se-|
 G2 G2 c3 B | A2 A2 B2 B2 | F3 F G4 | z4 z2 d2 | e3 d c3 B | A2 G2 F2 G2- | G2 F4 =E2 | F16 |] %59
w: mi, et pen- sa|tu se ques- to|dol- se- mi,|et|pen- sa tu se|ques- to dol- *|* * se-|mi.|
V:2
 x8 |[M:2/2] z8 |[K:Bb][K:treble] x8 |[M:4/4] z8 | z2 F2 G2 A2 | B2 G2 A2 F2 | G3 G F2 C2 | %7
w: ||||e due ca-|pret- ti per ma-|li- ti- a, quel|
 E3 D C2 C2 | D2 D2 F3 E | D3 D C4 | z2 D2 F3 E | D2 D2 C2 C2 | F3 E D3 C | B,2 B,2 F3 E | %14
w: la- dro tra- di-|tor, quel la- dro|tra- di- tor,|quel la- dro|tra- di- tor dal|gre- ge tol- se-|mi, dal gre- ge|
 D3 D C4- | C4 z2 A2 | B6 B2 | B2 G2 _A4 | G4 G2 F2 | D6 D2 | D4 D4 | =E2 F2 F4 | z2 F2 E2 E2 | %23
w: tol- se- mi,|* si|si- gno-|reg- gia al mon-|do l'a- ni-|ri- ti-|a Io|gliel di- rei,|Io gliel di-|
 D4 F4 | F2 F2 F2 E2 | D6 D2 | D4 G4- | G4 ^F4- | F2 ^F4 G2- | G2 A2 B4 | B4 z2 G2 | G2 F2 E3 E | %32
w: rei ma|chi m'el dis- se|vol- se-|mi le-|* gar|* per giu-|* ra- men-|to, ond'|es- ser mu- to-|
 E2 E2 D2 D2 | z8 |[M:3/2] D4 =E4 F4 | F8 z4 | B4 B4 B4 | B8 G4 | G6 G2 G4 | G4 ^F8 | ^F8 G4- | %41
w: lo con- viem- mi.||In gliel di-|rei|ma chi m'el|dis- se|vil- se- mi|le- gar|per giu-|
 G4 A8 |[M:4/4] B4 B4 | z2 G2 G2 F2 | D3 D D2 C2 | D2 D2 z4 | z4 G4 | G4 F4 | D4 z2 F2 | %49
w: * ra-|men- to|ond' es- ser|mu- to- lo con-|viem- mi.|Et|pen- sa|tu, et|
 B3 A G2 F2 | F2 G2 A3 A | G4 z2 C2 | F3 E D2 B2 | d3 c B3 A | G3 G F3 F | G2 G2 E3 D | %56
w: pen- sa tu se|ques- to dol- se-|mi, et|pen- sa tu, et|pen- sa tu se|ques- to dol- se-|mi, et pen- sa|
 C3 B, _A,2 G,2 | C6 C2 | C16 |] %59
w: tu se ques- to|dol- se-|mi.|
V:3
 x8 |[M:2/2] z8 |[K:Bb][K:treble-8] x8 |[M:4/4] f4 =e4 | f4 z4 | z8 | z4 z2 F2 | c3 B A3 G | %8
w: |||Due ca-|pre||quel|la- dro tra- di-|
 F4 z2 F2 | B3 B A2 A2 | B4 z2 F2 | B3 B A2 A2 | B2 B2 f3 e | d3 c B2 F2 | B3 A G3 G | F4 z2 f2 | %16
w: tor, quel|la- dro tra- di-|tor, quel|la- dro tra- di-|tor dal gre- ge|tol- se- mi, dal|gre- ge tol- se-|mi, si|
 f6 f2 | f2 e2 e4 | e4 e2 c2 | =B6 B2 | =B4 B4 | c2 c2 d4 | z2 d2 c2 c2 | A4 z2 d2 | d2 d2 d2 c2 | %25
w: si- gno-|reg- gia al mon-|do l'a- ni-|ri- ti-|a Io|gliel di- rei,|Io gliel di-|rei ma|chi m'el dis- se|
 =B6 B2 | =B4 d4- | d4 d4- | d4 d2 d2- | d2 f2 f4 | f4 z2 e2 | e2 c2 c3 c | c2 c2 A2 A2 | z8 | %34
w: vol- se-|mi le-|* gar|* per giu-|* ra- men-|to, ond'|es- ser mu- to-|lo con- viem- mi.||
[M:3/2] B4 c4 c4 | d12 | f4 f4 f4 | f8 e4 | d6 d2 d4 | d4 d8 | d8 d4- | d4 f8 |[M:4/4] f4 f4 | %43
w: In gliel di-|rei|ma chi m'el|dis- se|vil- se- mi|le- gar|per giu-|* ra-|men- to|
 z2 e2 e2 c2 | =B3 B B2 c2 | =B2 B2 z4 | z4 d4 | e4 c4 | =B4 z4 | z8 | d8 | =B4 c4 | d4 z4 | %53
w: ond' es- ser|mu- to- lo con-|viem- mi.|Et|pen- sa|tu,||et|pen- sa|tu,|
 z2 d2 e3 d | c2 c2 B2 A2 | c2 c2 G2 G2 | e3 d c3 B | _A2 A2 G3 G | F16 |] %59
w: et pen- sa|tu se ques- to|dol- se- mi, et|pen- sa tu se|ques- to dol- se-|mi.|
V:4
 x8 |[M:2/2] z8 |[K:Bb][K:bass] x8 |[M:4/4] z4 C4 | D4 C4 | z8 | z8 | z2 C,2 F,3 E, | D,3 C, B,,4 | %9
w: |||Due|ca- pre|||quel la- dro|tra- di- tor,|
 z4 z2 F,2 | B,3 B, A,2 A,2 | B,4 F,4 | B,,8 | B,,4 B,,4- | B,,2 B,,2 C,4 | z4 F,4 | B,6 B,2 | %17
w: quel|la- dro tra- di-|tor dal|gre-|ge tol-|* se- mi,|si|si- gno-|
 B,2 C2 _A,4 | E,4 E,2 F,2 | G,6 G,2 | G,4 G,4 | C,2 F,2 B,,4 | z2 B,,2 C,2 C,2 | D,4 D4 | %24
w: reg- gia al mon-|do l'a- ni-|ri- ti-|a Io|gliel di- rei,|Io gliel di-|rei ma|
 B,2 B,2 B,2 C2 | G,6 G,2 | G,4 G,4 | D,8 | D,6 G,2- | G,2 F,2 B,4 | B,4 z2 E,2 | E,2 F,2 C,3 C, | %32
w: chi m'el dis- se|vol- se-|mi le-|gar|per giu-|* ra- men-|to, ond'|es- ser mu- to-|
 C,2 C,2 D,2 D,2 | z8 |[M:3/2] G,4 C,4 F,4 | B,,12 | B,4 B,4 B,4 | B,8 C4 | G,6 G,2 G,4 | G,4 D,8 | %40
w: lo con- viem- mi.||In gliel di-|rei|ma chi m'el|dis- se|vil- se- mi|le- gar|
 D,8 G,4- | G,4 F,8 |[M:4/4] B,4 B,4 | z2 E,2 E,2 F,2 | G,3 G, G,2 _A,2 | G,2 G,2 z4 | G,8 | %47
w: per giu-|* ra-|men- to|ond' es- ser|mu- to- lo con-|viem- mi.|Et|
 E,4 F,4 | G,4 z4 | z8 | z8 | G,4 =E,4 | F,4 G,2 G,2 | B,3 A, G,3 F, | E,3 E, D,3 D, | C,4 C,4 | %56
w: pen- sa|tu,|||et pen-|sa tu, et|pen- sa tu se|ques- to dol- se-|mi, se|
 C,6 C,2 | C,6 C,2 | F,16 |] %59
w: ques- to|dol- se-|mi.|

